packages/core/src/svgs/tokens/mono/HOGE.svg

<svg width="24" height="24" viewBox="0 0 24 24" fill="none" xmlns="http://www.w3.org/2000/svg">
<path d="M15.9884 10.8813L11.9885 4.74023C12.5297 4.78728 13.0473 4.90494 13.2356 4.95787L16.7767 10.4636C16.412 10.7166 16.1002 10.846 15.9884 10.8754V10.8813ZM4.54752 13.3282C3.82989 14.4636 4.13577 16.5752 4.51222 17.8575C4.76516 18.5281 5.38867 18.8928 5.9769 19.2458C7.33569 20.0693 10.1533 21.3281 13.4531 19.8339C12.2649 19.4634 10.6709 15.9753 9.50028 14.4047C9.14219 13.8942 8.68051 13.4648 8.1454 13.1446C7.61028 12.8242 7.01372 12.6203 6.39453 12.5459C5.67102 12.4871 4.95928 12.6812 4.54752 13.3282Z" fill="white"/>
<path d="M4.12987 15.7163C4.62987 16.5869 5.8063 17.8927 7.5592 17.8927C8.1717 17.8926 8.77506 17.7442 9.31786 17.4605C9.86069 17.1768 10.3269 16.7662 10.6768 16.2634C10.265 15.5575 9.85918 14.8928 9.50027 14.4046C9.14218 13.8942 8.68051 13.4647 8.14539 13.1445C7.61027 12.8242 7.01371 12.6202 6.39452 12.5458C5.67102 12.4871 4.95927 12.6812 4.54752 13.3282C4.16516 13.9341 4.07693 14.8282 4.13576 15.7163H4.12987Z" fill="white"/>
<path d="M2.00015 13.193C2.0178 9.66354 3.92952 8.80479 4.88832 8.82242C5.31771 10.2459 6.03534 10.5459 6.45299 10.5459C7.35296 10.5459 8.19412 9.26948 8.39411 8.66361C10.7822 8.56361 11.5352 9.50477 12.4645 10.1517C13.2823 10.7224 14.2293 11.5048 15.3352 11.5048C16.2174 11.5048 16.835 11.1518 17.035 10.9753L17.888 11.4459C17.7468 12.3047 17.4351 14.2693 17.3116 15.3046C17.1822 16.3399 17.488 17.0458 17.6469 17.2693C17.2763 18.034 16.3409 19.5868 14.7822 19.6221C13.0175 19.6575 11.5941 16.7575 11.4176 16.4458C11.2411 16.1281 10.1529 14.0929 8.98234 13.034C7.81765 11.9753 6.5471 11.9577 6.55299 11.9753C6.4788 11.5341 6.46496 11.0849 6.51181 10.6401C6.14711 11.0164 6.13535 11.687 6.17652 11.9753C2.67661 12.1341 3.40011 16.4047 4.19421 18.5222C3.56481 18.3045 1.9825 17.6575 2.00015 13.193Z" fill="white"/>
<path d="M16.835 11.1164L17.688 11.6046L17.6115 12.1046C17.1174 15.4398 16.888 16.9515 15.1409 16.9515C13.8881 16.9515 12.6176 15.4516 11.3999 14.0046C10.7058 13.1811 10.0294 12.381 9.37636 11.8752C8.55551 11.2292 7.53871 10.8826 6.49414 10.8928C6.47649 11.2399 6.47649 11.7163 6.55297 11.9752C6.54708 11.9576 7.81764 11.9752 8.98233 13.0339C10.0647 14.0164 11.0764 15.8339 11.3646 16.3457L11.4176 16.4457L11.4705 16.5456C11.794 17.1457 13.141 19.6574 14.7822 19.6162C16.3409 19.5867 17.2763 18.0398 17.6469 17.2633C17.3117 16.6689 17.1931 15.9766 17.3116 15.3045C17.4351 14.2751 17.7468 12.3046 17.888 11.4458L17.035 10.9751C16.9881 11.0163 16.9174 11.0634 16.835 11.1164ZM6.32944 10.9046C6.18228 11.241 6.12941 11.611 6.1765 11.9752C2.67659 12.134 3.40009 16.4045 4.19419 18.5221C3.85021 18.409 3.53483 18.2226 3.2698 17.9758C3.00477 17.729 2.79637 17.4278 2.65894 17.0927C2.82364 17.2515 3.08245 17.4162 3.24716 17.2868C3.31187 17.2338 3.27657 16.8809 3.23539 16.4162C3.21187 16.181 3.18834 15.9221 3.17658 15.6575C3.11775 14.7105 3.10599 13.7045 3.49421 12.8164C3.72851 12.2557 4.12185 11.7759 4.62568 11.4362C5.12952 11.0963 5.7218 10.9116 6.32944 10.9046Z" fill="white"/>
<path d="M18.4764 10.94V6.50488C21.4528 9.45776 21.9999 11.7635 21.9999 12.5283C21.9999 12.9812 21.9234 13.4458 21.8116 13.8812C21.5234 15.0047 20.9764 16.5282 19.8411 17.0811C18.8587 17.5634 17.7647 17.14 17.8882 15.5105C17.9882 14.187 18.4764 12.2872 18.4764 10.94Z" fill="white"/>
<path d="M21.5352 10.7283C21.8939 11.5695 21.9999 12.193 21.9999 12.5224C21.9999 12.9754 21.9234 13.4401 21.8116 13.8753C21.5234 14.9989 20.9764 16.5223 19.8411 17.0752C18.8587 17.5576 17.7647 17.1341 17.8882 15.5046V15.4223C19.0059 15.3929 20.7057 14.5164 21.5352 10.7283Z" fill="white"/>
<path d="M10.6062 3.58158C9.52974 3.75804 8.74738 4.09333 8.38856 4.25215C9.9415 4.31097 12.959 4.2051 15.0355 5.17566C15.6509 5.46298 16.1899 5.89125 16.6089 6.42573C17.0278 6.9602 17.3151 7.58589 17.4471 8.25206L17.8472 8.52852L17.9471 6.17563C16.3001 3.99922 13.2237 3.1463 10.6062 3.58158ZM5.16511 8.26971C5.09452 8.58734 5.3651 9.19321 5.50039 9.41086C5.52392 9.44615 5.56509 9.45202 5.60039 9.4285C5.61758 9.41763 5.63048 9.40114 5.6369 9.38184C5.64334 9.36256 5.6429 9.34163 5.63568 9.32262C5.55333 9.09909 5.40039 8.60499 5.45922 8.44617C5.54157 8.23441 6.10626 7.98148 7.92974 8.03442C7.97092 8.03442 8.00622 8.01677 8.02386 7.97559C8.04151 7.94618 8.02386 7.91677 7.98268 7.905C7.57093 7.85795 5.41804 7.68736 5.16511 8.26971Z" fill="white"/>
<path d="M7.04725 4.72245C5.5767 5.0342 5.11199 5.34008 5.06494 5.44596L6.23551 7.58708L6.80607 7.56356C7.22372 7.54591 8.52368 7.52827 8.54721 8.07531H8.9825L7.04136 4.72245H7.04725ZM10.8413 8.5047L8.72367 4.58716H9.77663L12.6 9.54587C12.0941 9.07529 11.2178 8.65764 10.8413 8.5047ZM13.1589 9.9576L10.0296 4.58716H10.606L14.0648 10.6458C13.7823 10.393 13.3412 10.0811 13.1589 9.9576Z" fill="white"/>
</svg>

<svg xmlns="http://www.w3.org/2000/svg" width="24" height="24" fill="none" viewBox="0 0 24 24">
    <path fill="#fff" d="m15.988 10.881-4-6.14a8 8 0 0 1 1.248.217l3.54 5.506c-.364.253-.676.382-.788.411zm-11.44 2.447c-.718 1.136-.412 3.247-.036 4.53.253.67.877 1.035 1.465 1.388 1.359.823 4.176 2.082 7.476.588-1.188-.37-2.782-3.859-3.953-5.43a4.44 4.44 0 0 0-3.105-1.858c-.724-.059-1.436.135-1.847.782"/>
    <path fill="#fff" d="M4.13 15.716c.5.87 1.676 2.177 3.43 2.177a3.8 3.8 0 0 0 3.117-1.63c-.412-.706-.818-1.37-1.177-1.858a4.44 4.44 0 0 0-3.105-1.86c-.724-.058-1.436.136-1.847.783-.383.606-.471 1.5-.412 2.388z"/>
    <path fill="#fff" d="M2 13.193c.018-3.53 1.93-4.388 2.888-4.37.43 1.423 1.147 1.723 1.565 1.723.9 0 1.741-1.277 1.941-1.882 2.388-.1 3.141.84 4.07 1.488.818.57 1.765 1.353 2.871 1.353.882 0 1.5-.353 1.7-.53l.853.47c-.141.86-.453 2.824-.576 3.86-.13 1.035.176 1.74.335 1.964-.37.765-1.306 2.318-2.865 2.353-1.764.035-3.188-2.864-3.364-3.176-.177-.318-1.265-2.353-2.436-3.412-1.164-1.059-2.435-1.076-2.429-1.059a5 5 0 0 1-.041-1.335c-.365.376-.377 1.047-.335 1.335-3.5.16-2.777 4.43-1.983 6.547-.63-.217-2.211-.864-2.194-5.329"/>
    <path fill="#fff" d="m16.835 11.116.853.489-.076.5c-.495 3.335-.724 4.846-2.471 4.846-1.253 0-2.523-1.5-3.741-2.946-.694-.824-1.37-1.624-2.024-2.13a4.6 4.6 0 0 0-2.882-.982c-.018.347-.018.823.059 1.082-.006-.017 1.265 0 2.43 1.059 1.082.982 2.093 2.8 2.382 3.312l.053.1.053.1c.323.6 1.67 3.111 3.311 3.07 1.559-.03 2.494-1.576 2.865-2.353a2.95 2.95 0 0 1-.335-1.959c.123-1.029.435-3 .576-3.858l-.853-.47a2 2 0 0 1-.2.14m-10.506-.211c-.147.336-.2.706-.152 1.07-3.5.159-2.777 4.43-1.983 6.547a2.5 2.5 0 0 1-1.535-1.43c.165.16.423.324.588.195.065-.053.03-.406-.012-.87a14 14 0 0 1-.058-.76c-.06-.947-.071-1.953.317-2.84a3.11 3.11 0 0 1 2.835-1.912m12.147.035V6.505C21.453 9.458 22 11.764 22 12.528c0 .453-.077.918-.188 1.353-.289 1.124-.836 2.647-1.97 3.2-.983.482-2.077.059-1.954-1.57.1-1.324.588-3.224.588-4.571"/>
    <path fill="#fff" d="M21.535 10.728c.359.841.465 1.465.465 1.794 0 .453-.077.918-.188 1.353-.289 1.124-.836 2.647-1.97 3.2-.983.483-2.077.06-1.954-1.57v-.083c1.118-.03 2.818-.906 3.647-4.694M10.606 3.582a9 9 0 0 0-2.217.67c1.553.059 4.57-.047 6.647.924a4.32 4.32 0 0 1 2.411 3.076l.4.277.1-2.353c-1.647-2.177-4.723-3.03-7.34-2.594M5.166 8.27c-.071.317.2.923.334 1.14.024.036.065.042.1.018a.09.09 0 0 0 .036-.105c-.083-.224-.236-.718-.177-.877.083-.212.647-.465 2.47-.412.042 0 .077-.017.095-.058.018-.03 0-.06-.041-.071-.412-.047-2.565-.218-2.818.365"/>
    <path fill="#fff" d="M7.047 4.722c-1.47.312-1.935.618-1.982.724l1.17 2.141.571-.023c.418-.018 1.718-.036 1.741.511h.435l-1.94-3.353zm3.794 3.783L8.724 4.587h1.053L12.6 9.546c-.506-.47-1.382-.888-1.759-1.041m2.318 1.453-3.13-5.37h.577l3.459 6.058a10 10 0 0 0-.906-.688"/>
</svg>
